X:1
T:Title
L:1/8
M:4/4
I:linebreak $
K:G
V:1 treble nm="Voice"
V:1
"D" fdad fddf |"C" ecgc"A" eB/^c/ de |"D" fdad fdAB |"C" cBAG"D" FDDe |"D" fdad fddf | %5
"C" ecgc"A" eB/^c/ de |"D" afge"G" dBAB |"C" cBAG"D" FD D2 ::"D" DFAF dFAd |"C" cEGc z cGE | %10
"D" DEFG AD E/F/G |"A" Add^c"D" dBAG |"D" FG AB/^c/ dFAd |"C" cEGc z cGE |"D" DEFG AD E/F/G |1 %15
"A" Add^c"D" d3 F :|2"A" Add^c"D" d3 e |] %17
